src/pos-icons/home-assistant.svg

<svg height="24" viewBox="0 0 24 24" width="24" xmlns="http://www.w3.org/2000/svg"><path d="m21.8 13h-1.8v8h-7v-3.33l2.79-2.79.71.12c1.16 0 2.1-.94 2.1-2.1s-.94-2.1-2.1-2.1a2.1 2.1 0 0 0 -2.1 2.1l.1.71-1.5 1.52v-5.48c.66-.36 1.1-1.05 1.1-1.85a2.1 2.1 0 0 0 -2.1-2.1 2.1 2.1 0 0 0 -2.1 2.1c0 .8.44 1.49 1.1 1.85v5.48l-1.5-1.52.1-.71a2.1 2.1 0 0 0 -2.1-2.1 2.1 2.1 0 0 0 -2.1 2.1 2.1 2.1 0 0 0 2.1 2.1l.71-.12 2.79 2.79v3.33h-7v-8h-1.75c-.42 0-.83 0-.83-.21.01-.22.43-.64.86-1.07l8.72-8.72c.33-.33.67-.67 1-.67s.67.34 1 .67l4 4v-1h2v3l2.78 2.78c.4.4.81.81.82 1.02 0 .2-.4.2-.8.2m-14.3-1a.9.9 0 0 1 .9.9.9.9 0 0 1 -.9.9.9.9 0 0 1 -.9-.9.9.9 0 0 1 .9-.9m9 0c.5 0 .9.4.9.9s-.4.9-.9.9a.9.9 0 0 1 -.9-.9.9.9 0 0 1 .9-.9m-4.5-5.1c.5 0 .9.4.9.9s-.4.9-.9.9-.9-.4-.9-.9.4-.9.9-.9z"/></svg>

<?xml version="1.0" encoding="UTF-8"?><!DOCTYPE svg PUBLIC "-//W3C//DTD SVG 1.1//EN" "http://www.w3.org/Graphics/SVG/1.1/DTD/svg11.dtd"><svg xmlns="http://www.w3.org/2000/svg" xmlns:xlink="http://www.w3.org/1999/xlink" version="1.1" id="mdi-home-assistant" width="24" height="24" viewBox="0 0 24 24"><path d="M21.8,13H20V21H13V17.67L15.79,14.88L16.5,15C17.66,15 18.6,14.06 18.6,12.9C18.6,11.74 17.66,10.8 16.5,10.8A2.1,2.1 0 0,0 14.4,12.9L14.5,13.61L13,15.13V9.65C13.66,9.29 14.1,8.6 14.1,7.8A2.1,2.1 0 0,0 12,5.7A2.1,2.1 0 0,0 9.9,7.8C9.9,8.6 10.34,9.29 11,9.65V15.13L9.5,13.61L9.6,12.9A2.1,2.1 0 0,0 7.5,10.8A2.1,2.1 0 0,0 5.4,12.9A2.1,2.1 0 0,0 7.5,15L8.21,14.88L11,17.67V21H4V13H2.25C1.83,13 1.42,13 1.42,12.79C1.43,12.57 1.85,12.15 2.28,11.72L11,3C11.33,2.67 11.67,2.33 12,2.33C12.33,2.33 12.67,2.67 13,3L17,7V6H19V9L21.78,11.78C22.18,12.18 22.59,12.59 22.6,12.8C22.6,13 22.2,13 21.8,13M7.5,12A0.9,0.9 0 0,1 8.4,12.9A0.9,0.9 0 0,1 7.5,13.8A0.9,0.9 0 0,1 6.6,12.9A0.9,0.9 0 0,1 7.5,12M16.5,12C17,12 17.4,12.4 17.4,12.9C17.4,13.4 17,13.8 16.5,13.8A0.9,0.9 0 0,1 15.6,12.9A0.9,0.9 0 0,1 16.5,12M12,6.9C12.5,6.9 12.9,7.3 12.9,7.8C12.9,8.3 12.5,8.7 12,8.7C11.5,8.7 11.1,8.3 11.1,7.8C11.1,7.3 11.5,6.9 12,6.9Z" /></svg>
